images/Harmony-logo.svg

<svg width="303" height="61" viewBox="0 0 303 61" fill="none" xmlns="http://www.w3.org/2000/svg">
<path fill-rule="evenodd" clip-rule="evenodd" d="M47.6001 1C40.4458 0.99445 34.638 6.78281 34.6196 13.9371V28.2811C33.2828 28.3714 31.9159 28.4282 30.4988 28.4282C29.0818 28.4282 27.7216 28.485 26.3781 28.5652V13.9371C26.2644 6.85025 20.487 1.16483 13.3993 1.16483C6.31152 1.16483 0.534135 6.85025 0.42041 13.9371V48.2198C0.534135 55.3066 6.31152 60.992 13.3993 60.992C20.487 60.992 26.2644 55.3066 26.3781 48.2198V33.8757C27.7149 33.7855 29.0818 33.7287 30.4988 33.7287C31.9159 33.7287 33.2761 33.6719 34.6196 33.5917V48.2198C34.7333 55.3066 40.5107 60.992 47.5984 60.992C54.6862 60.992 60.4636 55.3066 60.5773 48.2198V13.9371C60.5588 6.78411 54.7531 0.996294 47.6001 1ZM13.3976 6.30049C17.6197 6.29863 21.0465 9.71496 21.0576 13.9371V29.1267C17.2603 29.6769 13.5521 30.7253 10.0288 32.2448C8.50226 32.9148 7.06524 33.7725 5.75098 34.7981V13.9371C5.76202 9.72017 9.18067 6.306 13.3976 6.30049ZM13.3976 55.8798C17.6281 55.8798 21.0576 52.4503 21.0576 48.2198V34.4773C18.0024 34.9757 15.0201 35.8478 12.1777 37.0741C8.14388 38.8654 5.73761 41.7429 5.73761 44.7808V48.2198C5.73761 52.4503 9.1671 55.8798 13.3976 55.8798ZM47.6001 55.8564C43.378 55.8582 39.9512 52.4419 39.9401 48.2198V33.0302C43.7374 32.4799 47.4456 31.4315 50.9689 29.9121C52.4954 29.2421 53.9324 28.3844 55.2467 27.3587V48.2198C55.2357 52.4367 51.817 55.8509 47.6001 55.8564ZM39.9401 27.6595C42.9953 27.1611 45.9776 26.289 48.82 25.0627C52.8538 23.2781 55.2601 20.4006 55.2601 17.376V13.9371C55.2601 9.70658 51.8306 6.2771 47.6001 6.2771C43.3696 6.2771 39.9401 9.70658 39.9401 13.9371V27.6595Z" fill="white"/>
<path fill-rule="evenodd" clip-rule="evenodd" d="M113.381 48.8614V13.2953H113.371C113.325 12.075 112.322 11.1099 111.101 11.1099C109.879 11.1099 108.876 12.075 108.83 13.2953V28.8091H85.1712V13.2953C85.1244 12.075 84.1215 11.1099 82.9003 11.1099C81.6791 11.1099 80.6762 12.075 80.6294 13.2953V48.8781C80.6762 50.0984 81.6791 51.0636 82.9003 51.0636C84.1215 51.0636 85.1244 50.0984 85.1712 48.8781V32.7494H108.84V48.8614C108.886 50.0817 109.889 51.0469 111.111 51.0469C112.332 51.0469 113.335 50.0817 113.381 48.8614ZM142.553 23.6373C142.984 23.2061 143.569 22.9639 144.178 22.9639C144.788 22.9639 145.373 23.2061 145.804 23.6373C146.236 24.0685 146.478 24.6534 146.478 25.2632V48.8179C146.478 50.0878 145.448 51.1173 144.178 51.1173C142.909 51.1173 141.879 50.0878 141.879 48.8179V47.4811C136.228 52.6894 127.457 52.4509 122.097 46.9434C116.738 41.4359 116.738 32.662 122.097 27.1544C127.457 21.6469 136.228 21.4085 141.879 26.6167V25.2632C141.879 24.6534 142.121 24.0685 142.553 23.6373ZM230.47 22.8636C224.732 22.8623 219.558 26.3179 217.361 31.6192C215.164 36.9204 216.377 43.023 220.434 47.0811C224.491 51.1393 230.593 52.3537 235.895 50.158C241.197 47.9623 244.654 42.789 244.654 37.0506C244.654 29.2166 238.304 22.8655 230.47 22.8636ZM230.47 46.6356C226.59 46.641 223.09 44.3079 221.602 40.7251C220.114 37.1422 220.931 33.0156 223.673 30.2708C226.415 27.5261 230.541 26.7041 234.125 28.1885C237.71 29.6728 240.046 33.171 240.045 37.0506C240.045 42.3403 235.76 46.6301 230.47 46.6356ZM132.291 46.6356C128.412 46.6356 124.916 44.2991 123.432 40.7158C121.948 37.1325 122.769 33.0081 125.512 30.2661C128.255 27.5241 132.38 26.7046 135.962 28.1897C139.545 29.6749 141.88 33.1722 141.879 37.0506C141.879 39.5933 140.869 42.0318 139.071 43.8294C137.272 45.627 134.833 46.6365 132.291 46.6356ZM166.253 27.4623C167.52 27.4604 168.547 26.4336 168.549 25.1663C168.55 24.5562 168.309 23.9705 167.879 23.5384C167.448 23.1064 166.863 22.8636 166.253 22.8636H165.955C162.401 22.8628 158.976 24.2031 156.367 26.6167V25.3935C156.393 24.1384 155.442 23.0777 154.191 22.9672C153.561 22.9333 152.944 23.16 152.486 23.5942C152.028 24.0284 151.768 24.6319 151.768 25.2632V48.7143C151.745 49.8814 152.574 50.8919 153.723 51.0972C154.33 51.1886 154.949 51.0324 155.44 50.6635C155.93 50.2946 156.252 49.744 156.333 49.1354C156.297 44.8209 156.247 37.5252 156.367 37.0506C156.366 34.5073 157.376 32.068 159.174 30.2696C160.973 28.4713 163.412 27.4614 165.955 27.4623H166.112H166.253ZM272.359 34.7546V48.8246C272.359 50.0945 271.33 51.124 270.06 51.124C268.791 51.1221 267.764 50.0932 267.764 48.8246V46.5253V34.7546C267.761 32.7634 266.933 30.8626 265.476 29.5056C264.019 28.1486 262.064 27.457 260.077 27.5959C256.267 27.8499 253.393 31.1886 253.393 35.0053V37.8026V46.5253V48.8246C253.393 50.0945 252.364 51.124 251.094 51.124C249.824 51.124 248.795 50.0945 248.795 48.8246V25.2766C248.795 24.0067 249.824 22.9772 251.094 22.9772C252.364 22.9772 253.393 24.0067 253.393 25.2766V25.4938C255.276 23.9825 257.589 23.1062 260 22.9906C263.221 22.8304 266.367 23.9984 268.703 26.2219C271.039 28.4454 272.361 31.5297 272.359 34.7546ZM212.136 35.8408V48.8213C212.136 50.0912 211.106 51.1206 209.836 51.1206C208.566 51.1206 207.537 50.0912 207.537 48.8213V36.9938V33.8823C207.59 31.5543 206.379 29.3801 204.371 28.2005C202.363 27.0209 199.874 27.0209 197.866 28.2005C195.859 29.3801 194.647 31.5543 194.7 33.8823V48.8213C194.7 50.0912 193.671 51.1206 192.401 51.1206C191.131 51.1206 190.102 50.0912 190.102 48.8213V36.9938V33.8823C190.155 31.5543 188.943 29.3801 186.935 28.2005C184.928 27.0209 182.439 27.0209 180.431 28.2005C178.423 29.3801 177.212 31.5543 177.265 33.8823V48.8213C177.265 50.0912 176.235 51.1206 174.965 51.1206C173.696 51.1206 172.666 50.0912 172.666 48.8213V25.2766C172.648 24.0608 173.582 23.0421 174.794 22.9535C176.007 22.8648 177.079 23.7369 177.238 24.9424C182.059 21.4555 188.779 22.4376 192.401 27.1581C195.273 23.4165 200.211 21.9216 204.677 23.4417C209.142 24.9617 212.142 29.1585 212.136 33.8757V35.8408ZM285.497 59.82L300.997 26.2825L301.004 26.2792C301.459 25.5113 301.437 24.5514 300.948 23.8048C300.459 23.0582 299.588 22.6549 298.702 22.7653C297.816 22.8756 297.071 23.4803 296.78 24.3241L288.003 43.2969L279.224 24.3241C278.933 23.4803 278.187 22.8756 277.301 22.7653C276.416 22.6549 275.544 23.0582 275.055 23.8048C274.566 24.5514 274.545 25.5113 275 26.2792L285.437 48.8413L281.269 57.8649C280.869 59.0027 281.399 60.2585 282.494 60.7649C283.589 61.2712 284.889 60.862 285.497 59.82Z" fill="white"/>
</svg>

<svg xmlns="http://www.w3.org/2000/svg" width="303" height="61" fill="none"><path fill="#fff" fill-rule="evenodd" d="M47.6 1C40.446.994 34.638 6.783 34.62 13.937v14.344c-1.337.09-2.704.147-4.121.147-1.417 0-2.777.057-4.12.137V13.937c-.115-7.087-5.892-12.772-12.98-12.772C6.312 1.165.534 6.85.42 13.937V48.22c.114 7.087 5.892 12.772 12.98 12.772 7.087 0 12.864-5.685 12.978-12.772V33.876a60.943 60.943 0 0 1 4.12-.147c1.418 0 2.778-.057 4.122-.137V48.22c.113 7.087 5.89 12.772 12.978 12.772s12.866-5.685 12.98-12.772V13.937C60.557 6.784 54.752.997 47.6 1ZM13.398 6.3a7.657 7.657 0 0 1 7.66 7.637v15.19a43.658 43.658 0 0 0-11.03 3.118 20.054 20.054 0 0 0-4.277 2.553v-20.86A7.657 7.657 0 0 1 13.398 6.3Zm0 49.58a7.66 7.66 0 0 0 7.66-7.66V34.477a37.765 37.765 0 0 0-8.88 2.597c-4.034 1.791-6.44 4.669-6.44 7.707v3.439a7.66 7.66 0 0 0 7.66 7.66Zm34.202-.024a7.657 7.657 0 0 1-7.66-7.636V33.03a43.666 43.666 0 0 0 11.029-3.118 20.052 20.052 0 0 0 4.278-2.553v20.86a7.657 7.657 0 0 1-7.647 7.637ZM39.94 27.66a37.765 37.765 0 0 0 8.88-2.596c4.034-1.785 6.44-4.662 6.44-7.687v-3.439a7.66 7.66 0 1 0-15.32 0V27.66ZM113.381 48.861V13.295h-.01a2.271 2.271 0 0 0-4.541 0V28.81H85.171V13.295a2.273 2.273 0 0 0-4.542 0v35.583a2.273 2.273 0 0 0 4.542 0V32.75h23.669v16.112a2.272 2.272 0 0 0 4.541 0Zm29.172-25.224a2.298 2.298 0 0 1 3.925 1.626v23.555a2.3 2.3 0 0 1-4.599 0V47.48c-5.651 5.208-14.422 4.97-19.782-.538-5.359-5.507-5.359-14.281 0-19.789 5.36-5.507 14.131-5.745 19.782-.537v-1.354c0-.61.242-1.195.674-1.626Zm87.917-.773a14.187 14.187 0 1 0 14.184 14.187c0-7.834-6.35-14.186-14.184-14.187Zm0 23.772a9.588 9.588 0 1 1 9.575-9.585c0 5.29-4.285 9.58-9.575 9.585Zm-98.179 0a9.588 9.588 0 1 1 0-19.177 9.588 9.588 0 0 1 0 19.177Zm33.962-19.174a2.3 2.3 0 0 0 0-4.598h-.298c-3.554-.001-6.979 1.34-9.588 3.753v-1.224a2.386 2.386 0 0 0-2.176-2.426 2.3 2.3 0 0 0-2.423 2.296v23.451a2.373 2.373 0 0 0 1.955 2.383 2.291 2.291 0 0 0 2.61-1.962c-.036-4.314-.086-11.61.034-12.084a9.586 9.586 0 0 1 9.588-9.589h.298Zm106.106 7.293v14.07c0 1.27-1.029 2.299-2.299 2.299a2.3 2.3 0 0 1-2.296-2.3V34.756a7.187 7.187 0 0 0-7.687-7.16c-3.81.255-6.684 3.594-6.684 7.41v13.82a2.299 2.299 0 1 1-4.598 0V25.277a2.299 2.299 0 1 1 4.598 0v.217A11.43 11.43 0 0 1 260 22.99a11.775 11.775 0 0 1 12.359 11.764Zm-60.223 1.086v12.98a2.3 2.3 0 0 1-4.599 0V33.882a6.42 6.42 0 1 0-12.837 0v14.94a2.299 2.299 0 1 1-4.598 0v-14.94a6.42 6.42 0 1 0-12.837 0v14.94a2.3 2.3 0 0 1-4.599 0V25.276a2.296 2.296 0 0 1 4.572-.335c4.821-3.486 11.541-2.504 15.163 2.216a11.005 11.005 0 0 1 19.735 6.718v1.965Zm73.361 23.979 15.5-33.538.007-.003a2.34 2.34 0 1 0-4.224-1.955l-8.777 18.973-8.779-18.973A2.34 2.34 0 1 0 275 26.28l10.437 22.562-4.168 9.024a2.34 2.34 0 0 0 4.228 1.955Z" clip-rule="evenodd"/></svg>
